X: 5761
T: Cailin Mo Rùin-Sa
R: waltz
M: 3/4
K: Gmajor
D2 G2 A2|B6|A4 B2|A2 G2 E2|D6-|D4 B2|
c2 d2 e2|d6|B4 A2|G2 E2 G2|A6-|A4 d2|
d2 e2 d2|B6|A4 B2|A2 G2 E2|D6-|D4 B2|
c2 d2 e2|d6|B4 G2|A2 G2 E2|G6-|G4||

